icon/bts/calendar.svg

<svg xmlns="http://www.w3.org/2000/svg" width="32" height="32" fill="none" stroke="currentcolor" stroke-linecap="round" stroke-linejoin="round" stroke-width="2"><path d="M2 6v24h28V6Zm0 9h28M7 3v6m6-6v6m6-6v6m6-6v6"/></svg>

<svg id="i-calendar" xmlns="http://www.w3.org/2000/svg" viewBox="0 0 32 32" fill="none" stroke="currentcolor" stroke-linecap="round" stroke-linejoin="round" stroke-width="2" height="1em" width="1em">
  <path d="M2 6 L2 30 30 30 30 6 Z M2 15 L30 15 M7 3 L7 9 M13 3 L13 9 M19 3 L19 9 M25 3 L25 9"/>
</svg>
